X: 30511
M: 6/8
L: 1/8
K: C
!pp!E |\
M: 2/4
L: 1/8
|: !ff!e/d/ |\
cGG e/d/ | cGGz | B/c/d/e/ fB | dcc :: a |\
geea | ge eg | fd dg | fd da |\
ge ea | ge ez | de fB | dcc :|


